assets/images/logos/samsung.svg

<?xml version="1.0" encoding="iso-8859-1"?>
<!-- Generator: Adobe Illustrator 19.0.0, SVG Export Plug-In . SVG Version: 6.00 Build 0)  -->
<svg version="1.1" id="Capa_1" xmlns="http://www.w3.org/2000/svg" xmlns:xlink="http://www.w3.org/1999/xlink" x="0px" y="0px"
	 viewBox="0 0 512 512" style="enable-background:new 0 0 512 512;" xml:space="preserve">
<path style="fill:white;" d="M511.686,211.219c-10.56-60.905-265.338-51.36-425.524,16.027l-12.73,5.584
	c-48.347,22.168-76.765,46.794-73.119,67.946c10.625,61.333,267.711,51.005,426.962-16.636l18.991-8.615
	C489.909,254.316,515.139,231.227,511.686,211.219z"/>
<path style="fill:white;" d="M26.615,300.776c-3.646-21.152,24.772-45.779,73.119-67.946l12.73-5.584
	c79.585-33.479,190.439-54.642,279.424-56.575c-95.084-2.188-219.877,20.461-305.726,56.575l-12.73,5.584
	c-48.347,22.168-76.765,46.794-73.119,67.946c4.81,27.766,63.599,42.343,146.031,40.55C77.938,339.75,30.896,325.488,26.615,300.776
	z"/>
<g>
	<path style="fill:#343a40;" d="M428.577,253.821v5.189c0,0.851,0.69,1.541,1.541,1.541h2.956c0.568,0,1.029,0.461,1.029,1.029
		v6.831c0.026,0.703-0.016,1.459-0.13,2.063c-0.229,1.469-1.609,3.954-5.531,3.954c-3.906,0-5.261-2.485-5.505-3.954
		c-0.099-0.604-0.146-1.359-0.146-2.063v-24.809c0-0.885,0.063-1.838,0.25-2.557c0.266-1.323,1.433-3.938,5.37-3.938
		c4.131,0,5.157,2.745,5.386,3.938c0.161,0.776,0.177,2.089,0.177,2.089v1.613c0,0.769,0.623,1.392,1.392,1.392h10.456
		c0.962,0,1.742-0.78,1.742-1.742v-0.039c0,0,0.057-1.859-0.104-3.594c-1.016-10.183-9.36-13.391-18.939-13.391
		c-9.584,0-17.756,3.245-18.944,13.391c-0.104,0.937-0.271,2.609-0.271,3.594v22.829c0,0.984,0.026,1.755,0.208,3.578
		c0.849,9.474,8.719,13.089,17.762,13.376l18.991-8.615c0.625-1.386,1.042-2.969,1.219-4.761c0.146-1.823,0.161-2.594,0.198-3.578
		v-13.304c0-0.69-0.559-1.249-1.249-1.249h-16.669C429.109,252.633,428.577,253.165,428.577,253.821z"/>
	<path style="fill:#343a40;" d="M108.658,263.941c-2.266-11.402-22.751-14.767-24.288-21.126c-0.25-1.089-0.193-2.245-0.052-2.844
		c0.38-1.734,1.542-3.662,4.933-3.662c3.172,0,5.032,1.979,5.032,4.938v2.168c0,0.655,0.531,1.187,1.187,1.187h10.577
		c0.939,0,1.7-0.761,1.7-1.7v-2.123c0-11.792-10.584-13.678-18.225-13.678c-1.151,0-2.276,0.042-3.36,0.146l-12.73,5.584
		c-1.391,1.677-2.349,3.75-2.766,6.329c-0.396,2.437-0.459,4.573,0.109,7.318c2.333,11.089,21.527,14.313,24.319,21.324
		c0.521,1.313,0.354,2.98,0.099,4.006c-0.443,1.834-1.662,3.667-5.271,3.667c-3.365,0-5.391-1.969-5.391-4.933l-0.017-4.141
		c-0.002-0.599-0.488-1.083-1.087-1.083h-11.94c-0.804,0-1.456,0.652-1.456,1.456v2.695c0,12.131,9.475,15.782,19.616,15.782
		c9.761,0,17.777-3.339,19.079-12.423C109.377,268.15,108.887,265.087,108.658,263.941z"/>
	<path style="fill:#343a40;" d="M147.136,281.979l-6.811-46.531c-0.065-0.442-0.702-0.443-0.768-0.001l-7.003,46.689
		c-0.083,0.557-0.562,0.968-1.125,0.968h-12.52c-0.561,0-0.985-0.509-0.884-1.061l9.498-51.551c0.178-0.965,1.02-1.666,2.001-1.666
		h20.882c0.822,0,1.527,0.587,1.676,1.396l9.499,51.775c0.106,0.576-0.337,1.108-0.923,1.108h-12.223
		C147.784,283.103,147.231,282.625,147.136,281.979z"/>
	<path style="fill:#343a40;" d="M219.036,281.335l-0.338-45.918c-0.002-0.296-0.431-0.334-0.484-0.043l-8.615,46.612
		c-0.12,0.647-0.684,1.117-1.342,1.117h-10.863c-0.982,0-1.824-0.701-2.003-1.667l-8.454-45.794
		c-0.059-0.322-0.533-0.28-0.535,0.047l-0.341,46.338c-0.004,0.595-0.488,1.076-1.084,1.076h-10.992
		c-0.783,0-1.414-0.644-1.397-1.427l1.112-51.257c0.019-0.886,0.743-1.595,1.63-1.595h18.912c0.87,0,1.611,0.632,1.749,1.491
		l6.044,37.641c0.097,0.602,0.962,0.602,1.059,0l6.063-37.759c0.127-0.791,0.809-1.372,1.61-1.372h19.439
		c0.646,0,1.174,0.516,1.188,1.162l1.146,51.248c0.023,1.025-0.802,1.869-1.827,1.869h-9.895
		C219.839,283.103,219.044,282.314,219.036,281.335z"/>
	<path style="fill:#343a40;" d="M284.064,272.671c-1.276,8.985-9.24,12.282-18.892,12.282c-10.063,0-19.413-3.61-19.413-15.605
		v-3.012c0-0.626,0.508-1.134,1.134-1.134h11.86c0.74,0,1.341,0.6,1.341,1.341v3.868c0,2.927,2.026,4.87,5.381,4.87
		c3.589,0,4.792-1.808,5.204-3.61c0.25-1,0.385-2.677-0.099-3.99c-2.75-6.933-21.751-10.12-24.064-21.095
		c-0.599-2.714-0.51-4.844-0.135-7.235c1.433-8.787,9.193-11.944,18.694-11.944c7.563,0,17.985,1.833,17.985,13.537v2.269
		c0,0.826-0.67,1.496-1.496,1.496h-10.435c-0.763,0-1.381-0.618-1.381-1.381v-1.931c0-2.922-1.828-4.881-4.943-4.881
		c-3.344,0-4.506,1.896-4.902,3.631c-0.125,0.588-0.182,1.729,0.052,2.813c1.536,6.271,21.783,9.657,24.012,20.918
		C284.209,265.009,284.668,268.03,284.064,272.671"/>
	<path style="fill:#343a40;" d="M334.707,271.322c-0.958,10.141-8.896,13.428-18.84,13.428c-9.933,0-17.876-3.287-18.814-13.428
		c-0.062-0.542-0.135-2.584-0.12-3.583V230.91c0-1.151,0.933-2.084,2.084-2.084h9.674c1.043,0,1.889,0.846,1.889,1.889v38.269
		c-0.026,0.693,0,1.49,0.135,2.063c0.261,1.344,1.427,3.938,5.151,3.938c3.766,0,4.896-2.594,5.183-3.938
		c0.12-0.573,0.146-1.37,0.12-2.063v-38.494c0-0.919,0.745-1.664,1.664-1.664h10.124c1.026,0,1.858,0.832,1.858,1.858v37.055
		C334.874,268.738,334.79,270.78,334.707,271.322"/>
	<path style="fill:#343a40;" d="M393.433,282.536h-16.261c-0.732,0-1.378-0.479-1.59-1.18l-12.401-40.929
		c-0.146-0.483-0.859-0.371-0.85,0.133l0.688,40.23c0.016,0.959-0.756,1.745-1.715,1.745h-9.806c-0.938,0-1.699-0.761-1.699-1.699
		v-50.206c0-0.998,0.809-1.806,1.806-1.806h16.447c1.054,0,1.982,0.696,2.276,1.708l11.618,39.949
		c0.093,0.319,0.564,0.248,0.559-0.084l-0.658-39.726c-0.017-1.015,0.802-1.848,1.817-1.848h10.115c0.761,0,1.377,0.617,1.377,1.377
		v50.613C395.153,281.766,394.383,282.536,393.433,282.536z"/>
</g>
<g>
</g>
<g>
</g>
<g>
</g>
<g>
</g>
<g>
</g>
<g>
</g>
<g>
</g>
<g>
</g>
<g>
</g>
<g>
</g>
<g>
</g>
<g>
</g>
<g>
</g>
<g>
</g>
<g>
</g>
</svg>

<svg width="512" height="512" viewBox="0 0 512 512" fill="none" xmlns="http://www.w3.org/2000/svg">
<g clip-path="url(#clip0)">
<path d="M26.615 300.776C22.969 279.624 51.387 254.997 99.734 232.83L112.464 227.246C192.049 193.767 302.903 172.604 391.888 170.671C296.804 168.483 172.011 191.132 86.162 227.246L73.432 232.83C25.085 254.998 -3.33298 279.624 0.313024 300.776C5.12302 328.542 63.912 343.119 146.344 341.326C77.938 339.75 30.896 325.488 26.615 300.776Z" fill="#F4F7FE"/>
<path d="M428.577 253.821V259.01C428.577 259.861 429.267 260.551 430.118 260.551H433.074C433.642 260.551 434.103 261.012 434.103 261.58V268.411C434.129 269.114 434.087 269.87 433.973 270.474C433.744 271.943 432.364 274.428 428.442 274.428C424.536 274.428 423.181 271.943 422.937 270.474C422.838 269.87 422.791 269.115 422.791 268.411V243.602C422.791 242.717 422.854 241.764 423.041 241.045C423.307 239.722 424.474 237.107 428.411 237.107C432.542 237.107 433.568 239.852 433.797 241.045C433.958 241.821 433.974 243.134 433.974 243.134V244.747C433.974 245.516 434.597 246.139 435.366 246.139H445.822C446.784 246.139 447.564 245.359 447.564 244.397V244.358C447.564 244.358 447.621 242.499 447.46 240.764C446.444 230.581 438.1 227.373 428.521 227.373C418.937 227.373 410.765 230.618 409.577 240.764C409.473 241.701 409.306 243.373 409.306 244.358V267.187C409.306 268.171 409.332 268.942 409.514 270.765C410.363 280.239 418.233 283.854 427.276 284.141L446.267 275.526C446.892 274.14 447.309 272.557 447.486 270.765C447.632 268.942 447.647 268.171 447.684 267.187V253.883C447.684 253.193 447.125 252.634 446.435 252.634H429.766C429.109 252.633 428.577 253.165 428.577 253.821Z" fill="#F4F7FE"/>
<path d="M108.658 263.941C106.392 252.539 85.907 249.174 84.37 242.815C84.12 241.726 84.177 240.57 84.318 239.971C84.698 238.237 85.86 236.309 89.251 236.309C92.423 236.309 94.283 238.288 94.283 241.247V243.415C94.283 244.07 94.814 244.602 95.47 244.602H106.047C106.986 244.602 107.747 243.841 107.747 242.902V240.779C107.747 228.987 97.163 227.101 89.522 227.101C88.371 227.101 87.246 227.143 86.162 227.247L73.432 232.831C72.041 234.508 71.083 236.581 70.666 239.16C70.27 241.597 70.207 243.733 70.775 246.478C73.108 257.567 92.302 260.791 95.094 267.802C95.615 269.115 95.448 270.782 95.193 271.808C94.75 273.642 93.531 275.475 89.922 275.475C86.557 275.475 84.531 273.506 84.531 270.542L84.514 266.401C84.512 265.802 84.026 265.318 83.427 265.318H71.487C70.683 265.318 70.031 265.97 70.031 266.774V269.469C70.031 281.6 79.506 285.251 89.647 285.251C99.408 285.251 107.424 281.912 108.726 272.828C109.377 268.15 108.887 265.087 108.658 263.941Z" fill="#F4F7FE"/>
<path d="M147.136 281.978L140.325 235.447C140.26 235.005 139.623 235.004 139.557 235.446L132.554 282.135C132.471 282.692 131.992 283.103 131.429 283.103H118.909C118.348 283.103 117.924 282.594 118.025 282.042L127.523 230.491C127.701 229.526 128.543 228.825 129.524 228.825H150.406C151.228 228.825 151.933 229.412 152.082 230.221L161.581 281.996C161.687 282.572 161.244 283.104 160.658 283.104H148.435C147.784 283.102 147.231 282.624 147.136 281.978Z" fill="#F4F7FE"/>
<path d="M219.036 281.334L218.698 235.416C218.696 235.12 218.267 235.082 218.214 235.373L209.599 281.985C209.479 282.632 208.915 283.102 208.257 283.102H197.394C196.412 283.102 195.57 282.401 195.391 281.435L186.937 235.641C186.878 235.319 186.404 235.361 186.402 235.688L186.061 282.026C186.057 282.621 185.573 283.102 184.977 283.102H173.985C173.202 283.102 172.571 282.458 172.588 281.675L173.7 230.418C173.719 229.532 174.443 228.823 175.33 228.823H194.242C195.112 228.823 195.853 229.455 195.991 230.314L202.035 267.955C202.132 268.557 202.997 268.557 203.094 267.955L209.157 230.196C209.284 229.405 209.966 228.824 210.767 228.824H230.206C230.852 228.824 231.38 229.34 231.394 229.986L232.54 281.234C232.563 282.259 231.738 283.103 230.713 283.103H220.818C219.839 283.102 219.044 282.313 219.036 281.334Z" fill="#F4F7FE"/>
<path d="M284.064 272.67C282.788 281.655 274.824 284.952 265.172 284.952C255.109 284.952 245.759 281.342 245.759 269.347V266.335C245.759 265.709 246.267 265.201 246.893 265.201H258.753C259.493 265.201 260.094 265.801 260.094 266.542V270.41C260.094 273.337 262.12 275.28 265.475 275.28C269.064 275.28 270.267 273.472 270.679 271.67C270.929 270.67 271.064 268.993 270.58 267.68C267.83 260.747 248.829 257.56 246.516 246.585C245.917 243.871 246.006 241.741 246.381 239.35C247.814 230.563 255.574 227.406 265.075 227.406C272.638 227.406 283.06 229.239 283.06 240.943V243.212C283.06 244.038 282.39 244.708 281.564 244.708H271.129C270.366 244.708 269.748 244.09 269.748 243.327V241.396C269.748 238.474 267.92 236.515 264.805 236.515C261.461 236.515 260.299 238.411 259.903 240.146C259.778 240.734 259.721 241.875 259.955 242.959C261.491 249.23 281.738 252.616 283.967 263.877C284.209 265.008 284.668 268.029 284.064 272.67Z" fill="#F4F7FE"/>
<path d="M334.707 271.321C333.749 281.462 325.811 284.749 315.867 284.749C305.934 284.749 297.991 281.462 297.053 271.321C296.991 270.779 296.918 268.737 296.933 267.738V230.909C296.933 229.758 297.866 228.825 299.017 228.825H308.691C309.734 228.825 310.58 229.671 310.58 230.714V268.983C310.554 269.676 310.58 270.473 310.715 271.046C310.976 272.39 312.142 274.984 315.866 274.984C319.632 274.984 320.762 272.39 321.049 271.046C321.169 270.473 321.195 269.676 321.169 268.983V230.489C321.169 229.57 321.914 228.825 322.833 228.825H332.957C333.983 228.825 334.815 229.657 334.815 230.683V267.738C334.874 268.737 334.79 270.779 334.707 271.321Z" fill="#F4F7FE"/>
<path d="M393.433 282.535H377.172C376.44 282.535 375.794 282.056 375.582 281.355L363.181 240.426C363.035 239.943 362.322 240.055 362.331 240.559L363.019 280.789C363.035 281.748 362.263 282.534 361.304 282.534H351.498C350.56 282.534 349.799 281.773 349.799 280.835V230.629C349.799 229.631 350.608 228.823 351.605 228.823H368.052C369.106 228.823 370.034 229.519 370.328 230.531L381.946 270.48C382.039 270.799 382.51 270.728 382.505 270.396L381.847 230.67C381.83 229.655 382.649 228.822 383.664 228.822H393.779C394.54 228.822 395.156 229.439 395.156 230.199V280.812C395.153 281.765 394.383 282.535 393.433 282.535Z" fill="#F4F7FE"/>
</g>
<defs>
<clipPath id="clip0">
<rect width="512" height="512" fill="white"/>
</clipPath>
</defs>
</svg>
